X: 1
T: the Celebration Hornpipe
C: Duncan Smith
R: hornpipe
Z: 1997 by John Chambers <jc:trillian.mit.edu>
N:
M: C
L: 1/8
K: G
   d2 \
| "G"g2gf gdBd | "C"ecAG "D7"F2FE | DEFG ABcF |1,3 "G"GABc "D7"d2ef :|2,4 "G"G2g2 G2 :|
|: ef \
| "G"gdBG "D/F#"ecAF | "Em"dBGE "G/B"BGD[GB,] | "C"[GC]EGc "Em/B"dBGE | "D"F2A2 A2 ef |
| "Em"gage "D"fgfd | "C"efec "G/B"dedB | "Am"cAfe "D7"dcBA | "G"G2g2 G2 :|
